public/Users.svg

<svg width="18" height="18" viewBox="0 0 18 18" fill="none" xmlns="http://www.w3.org/2000/svg">
<path d="M13.7304 9.16577C13.0498 9.77977 12.1667 10.1213 11.2501 10.125C11.0461 10.125 10.8474 10.1063 10.6531 10.074C10.6329 10.056 10.6089 10.0433 10.5886 10.0253C11.265 10.5859 11.8093 11.2888 12.1829 12.0838C12.5565 12.8789 12.7502 13.7466 12.7501 14.625C12.7501 14.8239 12.6711 15.0147 12.5305 15.1554C12.3898 15.296 12.199 15.375 12.0001 15.375H16.5001C16.699 15.375 16.8898 15.296 17.0305 15.1554C17.1711 15.0147 17.2501 14.8239 17.2501 14.625C17.2498 13.4731 16.9177 12.3457 16.2935 11.3775C15.6693 10.4094 14.7795 9.64152 13.7304 9.16577Z" fill="#6563FF"/>
<path d="M6.75049 10.125C5.75593 10.125 4.8021 9.72991 4.09884 9.02665C3.39558 8.32339 3.00049 7.36956 3.00049 6.375C3.00049 5.38044 3.39558 4.42661 4.09884 3.72335C4.8021 3.02009 5.75593 2.625 6.75049 2.625C7.74505 2.625 8.69888 3.02009 9.40214 3.72335C10.1054 4.42661 10.5005 5.38044 10.5005 6.375C10.5005 7.36956 10.1054 8.32339 9.40214 9.02665C8.69888 9.72991 7.74505 10.125 6.75049 10.125Z" fill="#D8D8FF"/>
<path d="M6.75049 10.125C5.75593 10.125 4.8021 9.72991 4.09884 9.02665C3.39558 8.32339 3.00049 7.36956 3.00049 6.375C3.00049 5.38044 3.39558 4.42661 4.09884 3.72335C4.8021 3.02009 5.75593 2.625 6.75049 2.625C7.74505 2.625 8.69888 3.02009 9.40214 3.72335C10.1054 4.42661 10.5005 5.38044 10.5005 6.375C10.5005 7.36956 10.1054 8.32339 9.40214 9.02665C8.69888 9.72991 7.74505 10.125 6.75049 10.125Z" fill="#D8D8FF"/>
<path d="M9.23074 9.16577C8.55016 9.77977 7.6671 10.1213 6.75049 10.125C5.83347 10.1226 4.94966 9.7815 4.26874 9.16727C3.22017 9.64314 2.33079 10.4109 1.7069 11.3787C1.083 12.3465 0.750972 13.4735 0.750488 14.625C0.750488 14.8239 0.829506 15.0147 0.970158 15.1554C1.11081 15.296 1.30158 15.375 1.50049 15.375H12.0005C12.1994 15.375 12.3902 15.296 12.5308 15.1554C12.6715 15.0147 12.7505 14.8239 12.7505 14.625C12.7502 13.4731 12.418 12.3457 11.7939 11.3775C11.1697 10.4094 10.2798 9.64152 9.23074 9.16577Z" fill="#B2B1FF"/>
<path d="M11.25 2.625C10.4025 2.625 9.6285 2.9175 9 3.39225C9.26078 3.59016 9.49452 3.82138 9.69525 4.08C9.87041 4.3011 10.0199 4.54139 10.1407 4.79625C10.1722 4.8645 10.2045 4.932 10.2322 5.0025C10.305 5.18325 10.3635 5.37 10.407 5.565C10.4168 5.61 10.4235 5.65725 10.4325 5.70375C10.4722 5.92125 10.5 6.14475 10.5 6.375C10.5 6.61125 10.473 6.84 10.4302 7.06275C10.4235 7.09575 10.4205 7.13025 10.413 7.1625C10.3707 7.34893 10.3137 7.53174 10.2427 7.70925C10.2157 7.77975 10.1895 7.85025 10.158 7.91925C10.095 8.05425 10.023 8.18325 9.94575 8.30925C9.75075 8.631 9.51 8.91675 9.2295 9.1665C9.74775 9.402 10.227 9.70725 10.653 10.074C10.848 10.1063 11.046 10.125 11.25 10.125C12.2446 10.125 13.1984 9.72991 13.9017 9.02665C14.6049 8.32339 15 7.36956 15 6.375C15 5.38044 14.6049 4.42661 13.9017 3.72335C13.1984 3.02009 12.2446 2.625 11.25 2.625Z" fill="#8C8AFF"/>
</svg>

<svg xmlns="http://www.w3.org/2000/svg" width="18" height="18" fill="none" viewBox="0 0 18 18"><path fill="#6563ff" d="M13.73 9.166a3.73 3.73 0 0 1-2.48.959q-.306-.002-.597-.051c-.02-.018-.044-.03-.064-.049a5.97 5.97 0 0 1 2.161 4.6.75.75 0 0 1-.75.75h4.5a.75.75 0 0 0 .75-.75 6 6 0 0 0-3.52-5.46"/><path fill="#d8d8ff" d="M6.75 10.125a3.75 3.75 0 1 1 0-7.5 3.75 3.75 0 0 1 0 7.5"/><path fill="#d8d8ff" d="M6.75 10.125a3.75 3.75 0 1 1 0-7.5 3.75 3.75 0 0 1 0 7.5"/><path fill="#b2b1ff" d="M9.23 9.166a3.73 3.73 0 0 1-2.48.959 3.72 3.72 0 0 1-2.481-.958A6 6 0 0 0 .75 14.625a.75.75 0 0 0 .75.75H12a.75.75 0 0 0 .75-.75 6 6 0 0 0-3.52-5.46"/><path fill="#8c8aff" d="M11.25 2.625c-.848 0-1.621.293-2.25.767.26.198.495.43.695.688q.264.333.446.716.048.101.091.207.11.27.175.562.014.068.025.139c.04.217.068.44.068.671 0 .236-.027.465-.07.688l-.017.1q-.064.28-.17.546-.039.106-.085.21a4 4 0 0 1-.212.39 3.7 3.7 0 0 1-.716.857 6 6 0 0 1 1.423.908q.292.05.597.051a3.75 3.75 0 0 0 0-7.5"/></svg>
